symbols/web/circle_notifications/materialsymbolsrounded/circle_notifications_wght600gradN25fill1_48px.svg

<svg xmlns="http://www.w3.org/2000/svg" height="48" width="48"><path d="M24 36.8q1.1 0 1.85-.75t.8-1.85H21.3q.05 1.1.825 1.85.775.75 1.875.75Zm-8.2-5.65h16.35q.45 0 .85-.4.4-.4.4-.95 0-.55-.375-.925T32.1 28.5h-.7v-5.85q0-3-1.525-5.425T25.5 14.25v-1.6q0-.6-.45-1.05-.45-.45-1.05-.45-.65 0-1.1.45-.45.45-.45 1.05v1.6q-2.8.55-4.35 2.875-1.55 2.325-1.55 5.225v6.15h-.8q-.55 0-.9.4t-.35.9q0 .6.375.975t.925.375Zm8.2 13.3q-4.35 0-8.075-1.575Q12.2 41.3 9.45 38.55 6.7 35.8 5.125 32.075 3.55 28.35 3.55 24t1.575-8.075Q6.7 12.2 9.45 9.45 12.2 6.7 15.925 5.1 19.65 3.5 24 3.5t8.075 1.6Q35.8 6.7 38.55 9.45q2.75 2.75 4.35 6.475Q44.5 19.65 44.5 24t-1.6 8.075q-1.6 3.725-4.35 6.475-2.75 2.75-6.475 4.325Q28.35 44.45 24 44.45Zm0-21.7Z"/></svg>

<svg xmlns="http://www.w3.org/2000/svg" height="48" width="48"><path d="M24 36.8Q25.1 36.8 25.85 36.05Q26.6 35.3 26.65 34.2H21.3Q21.35 35.3 22.125 36.05Q22.9 36.8 24 36.8ZM15.8 31.15H32.15Q32.6 31.15 33 30.75Q33.4 30.35 33.4 29.8Q33.4 29.25 33.025 28.875Q32.65 28.5 32.1 28.5H31.4V22.65Q31.4 19.65 29.875 17.225Q28.35 14.8 25.5 14.25V12.65Q25.5 12.05 25.05 11.6Q24.6 11.15 24 11.15Q23.35 11.15 22.9 11.6Q22.45 12.05 22.45 12.65V14.25Q19.65 14.8 18.1 17.125Q16.55 19.45 16.55 22.35V28.5H15.75Q15.2 28.5 14.85 28.9Q14.5 29.3 14.5 29.8Q14.5 30.4 14.875 30.775Q15.25 31.15 15.8 31.15ZM24 44.45Q19.65 44.45 15.925 42.875Q12.2 41.3 9.45 38.55Q6.7 35.8 5.125 32.075Q3.55 28.35 3.55 24Q3.55 19.65 5.125 15.925Q6.7 12.2 9.45 9.45Q12.2 6.7 15.925 5.1Q19.65 3.5 24 3.5Q28.35 3.5 32.075 5.1Q35.8 6.7 38.55 9.45Q41.3 12.2 42.9 15.925Q44.5 19.65 44.5 24Q44.5 28.35 42.9 32.075Q41.3 35.8 38.55 38.55Q35.8 41.3 32.075 42.875Q28.35 44.45 24 44.45ZM24 22.75Z"/></svg>
